volume-vibrate.svg

<svg fill="currentColor" viewBox="0 0 24 24"><path d="M4 9v6h4l5 5V4L8 9zm12.55-6.53L15.5 3.53 17.93 6 15 9l2.93 3L15 15l2.93 3-2.43 2.47 1.05 1.06L20 18l-2.93-3L20 12l-2.93-3L20 6z"/></svg>

<svg  viewBox="0 0 24 24" fill="currentColor"><path  d="M4 9V15H8L13 20V4L8 9H4M16.55 2.47L15.5 3.53L17.93 6L15 9L17.93 12L15 15L17.93 18L15.5 20.47L16.55 21.53L20 18L17.07 15L20 12L17.07 9L20 6L16.55 2.47Z"/></svg>
